!!!COM: Schiørring, Niels
!!!CDT: 1743-1798
!!!OPR@@DA: Choral-Bog
!!!ONM: 101
!!!OTL@@DA: Vor Jeſus kan ey noget Herberg
**kern	**fb	**kern	**kern	**kern	**kern	**kern	**kern	**kern
*part6	*part6	*part6	*part5	*part5	*part4	*part3	*part2	*part1
*staff8	*	*staff7	*staff6	*staff5	*staff4	*staff3	*staff2	*staff1
*clefF4	*	*clefC1	*clefF4	*clefC1	*clefF4	*clefC4	*clefC3	*clefC1
*k[]	*	*k[]	*k[]	*k[]	*k[]	*k[]	*k[]	*k[]
*M4/4	*	*M4/4	*M4/4	*M4/4	*M4/4	*M4/4	*M4/4	*M4/4
*met(c)	*	*met(c)	*met(c)	*met(c)	*met(c)	*met(c)	*met(c)	*met(c)
*MM180	*	*MM180	*MM180	*MM180	*MM180	*MM180	*MM180	*MM180
*	*	*	*	*^	*	*	*	*
*	*	*	*	*	*^	*	*	*	*
2AA	.	2ee	2AA	2ee	2e	2cc\	2AA	2c	2a	2ee
=1	=1	=1	=1	=1	=1	=1	=1	=1	=1	=1
2A	.	2cc	2A	2cc	2e	2a\	2A	2e	2a	2cc
2E	7 #	2b	2E	2b	2d	2g#X\	2E	2d	2g#X	2b
=2	=2	=2	=2	=2	=2	=2	=2	=2	=2	=2
2F	.	2a	2F	2a	2c	2a\	2F	2c	2a	2a
2D	6	2b	2D	2b	2d	2f\	2D	2d	2f	2b
=3	=3	=3	=3	=3	=3	=3	=3	=3	=3	=3
*	*	*	*^	*	*	*	*	*	*	*
2E	#	2g#X	2E	2B	2g#X	2ryy	1e\	2E	2B	2e	2g#X
*	*	*	*v	*v	*	*	*	*	*	*	*
2C	6	2a	2C	2a	2e	.	2C	2A	2e	2a
=4	=4	=4	=4	=4	=4	=4	=4	=4	=4	=4
2BB	6	2b	2BB	2b	2d	2g#X\	2BB	2G#X	2d	2b
2AA	.	2cc	2AA	2cc	2e	2a\	2AA	2A	2e	2cc
=5	=5	=5	=5	=5	=5	=5	=5	=5	=5	=5
1E	#	2b	2E	2b	2e	2g#X\	2E	2G#X	2e	2b
*	*	*	*^	*	*	*	*	*	*	*
.	.	2e	2E	2G#X	2e	2ryy	2B\	2E	2G#	2e	2e
*	*	*	*v	*v	*	*	*	*	*	*	*
=6	=6	=6	=6	=6	=6	=6	=6	=6	=6	=6
2r	.	2r	.	2r	2r	2r	2r	2r	2r	2r
2C#X	5	2ee	2C#X	2ee	2gni	2a\	2C#X	2A	2g	2ee
=7	=7	=7	=7	=7	=7	=7	=7	=7	=7	=7
2D	5	2ff	2D	2ff	2f	4a\	2D	(4A	(4f	2ff
2E	nr6	2ee	2E	2ee	2g	[2ccni\	2E	2c	2g	2ee
=8	=8	=8	=8	=8	=8	=8	=8	=8	=8	=8
4F#X	5	2dd	4F#X	2dd	4a	4cc\]	(4F#X	(4c	(4a	2dd
*	*	*	*^	*	*	*	*	*	*	*
4G#X	5	.	4G#X	2.e	.	4ryy	4b\	4G#X)	4B)	4e)	.
2A	.	2cc	2A	.	2cc	2ryy	2a\	2A	2A	2e	2cc
*	*	*	*v	*v	*	*	*	*	*	*	*
=9	=9	=9	=9	=9	=9	=9	=9	=9	=9	=9
2D	4	2b	2D	2b	2e	2g#X\	2D	2G#X	2e	2b
2C	6	2ee	2C	2ee	2e	2a\	2C	2A	2e	2ee
=10	=10	=10	=10	=10	=10	=10	=10	=10	=10	=10
2F	.	2a	2F	2a	2c	2f\	2F	2c	2f	2a
2D	6	2b	2D	2b	2d	2f\	2D	2d	2f	2b
*	*	*	*	*	*v	*v	*	*	*	*
=	=	=	=	=	=	=	=	=	=
*	*	*	*^	*	*	*	*	*	*
2E	#	2g#X	2E	2B	2g#X	2e	2E	2B	2e	2g#X
*	*	*	*v	*v	*	*	*	*	*	*
=11:|!	=11:|!	=11:|!	=11:|!	=11:|!	=11:|!	=11:|!	=11:|!	=11:|!	=11:|!
*	*	*	*	*	*^	*	*	*	*
2E	#	2b	2E	2b	2e	2g#X\	2E	2e	2g#X	2b
=12	=12	=12	=12	=12	=12	=12	=12	=12	=12	=12
2A	.	2cc	2A	2cc	2e	2a\	2A	2e	2a	2cc
2G	2	2ee	2Gni	2ee	2a	[2cc\	2G	[2c	2a	2ee
=13	=13	=13	=13	=13	=13	=13	=13	=13	=13	=13
2F	6 5	2dd	2F	2dd	2a	2cc\]	2F	2c]	2a	2dd
2G	7	2ff	2G	2ff	2g	2b\	2G	2B	2g	2ff
=14	=14	=14	=14	=14	=14	=14	=14	=14	=14	=14
2c	.	2ee	2c	2ee	2g	2cc\	2c	2c	2g	2ee
2F#X	7 5	2ee	2F#X	2ee	2a	[2cc\	2F#X	[2c	2a	2ee
*	*	*	*	*	*v	*v	*	*	*	*
=15	=15	=15	=15	=15	=15	=15	=15	=15	=15
*	*	*	*^	*	*	*	*	*	*
2G	4	1dd	1G	1d	1dd	2cc]	(2G	2c]	(2d	1dd
2GG	3	.	.	.	.	2b	2GG)	2B	2g)	.
*	*	*	*v	*v	*	*	*	*	*	*
=16	=16	=16	=16	=16	=16	=16	=16	=16	=16
*	*	*	*	*	*^	*	*	*	*
2C	.	2cc	2C	2cc	2e	2g\	2C	2c	2e	2cc
*	*	*	*^	*	*	*	*	*	*	*
2A	#	2cc#X	2A	2e	2cc#X	1.ryy	2a\	2A	2e	2a	2cc#X
*	*	*	*	*	*	*v	*v	*	*	*	*
=17	=17	=17	=17	=17	=17	=17	=17	=17	=17	=17
2F	6	2dd	2F	2d	2dd	2a	2F	2d	2a	2dd
2E	6	2cc#X	2E	2e	2cc#X	2g	2E	2e	2g	2cc#X
=18	=18	=18	=18	=18	=18	=18	=18	=18	=18	=18
*	*	*	*	*	*	*^	*	*	*	*
2F	6	2dd	2F	2d	2dd	2ryy	2a\	2F	2d	2a	2dd
*	*	*	*v	*v	*	*	*	*	*	*	*
2D	.	2ff	2D	2ff	2a	2dd\	2D	2d	2a	2ff
=19	=19	=19	=19	=19	=19	=19	=19	=19	=19	=19
2GG#X	6	2ee	2GG#X	2ee	2e	2b\	2GG#X	2B	2b	2ee
2AA	.	2cc	2AA	2cc	2e	[2a\	2AA	2e	[2a	2cc
=20	=20	=20	=20	=20	=20	=20	=20	=20	=20	=20
2D	6 5	2b	2D	2b	2f	2a\]	2D	2f	2a]	2b
2F	6	2dd	2F	2dd	2d	2a\	2F	2d	2a	2dd
=21	=21	=21	=21	=21	=21	=21	=21	=21	=21	=21
2E	6 4	2cc	2E	2cc	1e	[1a\	2E	2e	2a	2cc
2C	6	(4b	2C	4b	.	.	2C	2e	[2a	(4b
.	.	4a)	.	4a	.	.	.	.	.	4a)
=22	=22	=22	=22	=22	=22	=22	=22	=22	=22	=22
2D	6 5	1b	2D	1b	2f	2a\]	2D	(2f	2a]	1b
2E	#	.	2E	.	4e	2g#X\	2E	4e	2g#X	.
.	.	.	.	.	4d	.	.	4d)	.	.
=23	=23	=23	=23	=23	=23	=23	=23	=23	=23	=23
2AA	.	2a	2AA	2a	2c	2e\	2AA	2c	2a	2a
*	*	*	*	*v	*v	*v	*	*	*	*
==	==	==	==	==	==	==	==	==
*-	*-	*-	*-	*-	*-	*-	*-	*-
!!!system-decoration: {(s1,s2,s3,s4)}{(s5,s6)}{(s7,s8)}
!!!RDF**kern: i = editorial accidental
!!!RDF**kern: > = above
!!!RDF**kern: < = below
!!!AGN: chorale
!!!EED: Derek Remeš
!!!EED2: Victor Phan
!!!END: 2023/11/28
!!!ENC: Wolfgang Drescher
!!!EEV: 2023/11/29
!!!title: @{ONM}. @{OTL}